icon/ii/list-rich.svg

<svg xmlns="http://www.w3.org/2000/svg" viewBox="0 0 8 8" height="1em" width="1em">
  <path d="M0 0v3h3v-3h-3zm4 0v1h4v-1h-4zm0 2v1h3v-1h-3zm-4 2v3h3v-3h-3zm4 0v1h4v-1h-4zm0 2v1h3v-1h-3z"/>
</svg>

<svg xmlns="http://www.w3.org/2000/svg" width="8" height="8"><path d="M0 0v3h3V0H0zm4 0v1h4V0H4zm0 2v1h3V2H4zM0 4v3h3V4H0zm4 0v1h4V4H4zm0 2v1h3V6H4z"/></svg>
